assets/svg/1F55F.svg

<svg xmlns="http://www.w3.org/2000/svg" viewBox="0 0 64 64" enable-background="new 0 0 64 64"><path fill="#e0e7ec" d="m61.742 32.05c0 16.396-13.293 29.689-29.691 29.689-16.4 0-29.694-13.293-29.694-29.689 0-16.4 13.293-29.694 29.694-29.694 16.398 0 29.691 13.293 29.691 29.694"/><path fill="#d1d7da" d="m52.39 47.25c-16.4 0-29.694-13.293-29.694-29.694 0-5.451 1.495-10.544 4.059-14.936-13.804 2.551-24.267 14.632-24.267 29.17 0 16.397 13.291 29.69 29.692 29.69 10.947 0 20.482-5.938 25.632-14.754-1.761.326-3.569.519-5.422.519"/><path fill="#98a9b4" d="m32.05 0c-17.674 0-32.05 14.379-32.05 32.05 0 17.674 14.379 32.05 32.05 32.05 17.674 0 32.05-14.379 32.05-32.05 0-17.674-14.377-32.05-32.05-32.05m0 57.863c-14.233 0-25.813-11.579-25.813-25.811 0-14.233 11.58-25.813 25.813-25.813 14.231 0 25.811 11.58 25.811 25.813-.0001 14.232-11.58 25.811-25.811 25.811"/><path fill="#85939c" d="m33.933 53.05c0 1.439-.849 2.607-1.891 2.607l0 0c-1.047 0-1.896-1.168-1.896-2.607v-21.12c0-1.44.849-2.608 1.896-2.608l0 0c1.042 0 1.891 1.168 1.891 2.608v21.12"/><path fill="#788288" d="m46.34 38.923c1.166.842 1.612 2.215 1 3.061l0 0c-.614.845-2.06.847-3.224 0l-12.375-8.966c-1.165-.843-1.613-2.219-.998-3.062l0 0c.612-.847 2.055-.847 3.22-.006l12.376 8.973"/></svg>

<?xml version="1.0" encoding="UTF-8" standalone="no"?>
<!-- Generator: Adobe Illustrator 16.0.0, SVG Export Plug-In . SVG Version: 6.00 Build 0)  -->

<svg
   xmlns:dc="http://purl.org/dc/elements/1.1/"
   xmlns:cc="http://creativecommons.org/ns#"
   xmlns:rdf="http://www.w3.org/1999/02/22-rdf-syntax-ns#"
   xmlns:svg="http://www.w3.org/2000/svg"
   xmlns="http://www.w3.org/2000/svg"
   xmlns:sodipodi="http://sodipodi.sourceforge.net/DTD/sodipodi-0.dtd"
   xmlns:inkscape="http://www.inkscape.org/namespaces/inkscape"
   version="1.1"
   id="Layer_1"
   x="0px"
   y="0px"
   width="64px"
   height="64px"
   viewBox="0 0 64 64"
   enable-background="new 0 0 64 64"
   xml:space="preserve"
   inkscape:version="0.48.5 r10040"
   sodipodi:docname="1F55F.svg"
   inkscape:export-filename="D:\TESTINGEMOJI\SVGTEST\1F55F.png"
   inkscape:export-xdpi="90"
   inkscape:export-ydpi="90"><metadata
   id="metadata4583"><rdf:RDF><cc:Work
       rdf:about=""><dc:format>image/svg+xml</dc:format><dc:type
         rdf:resource="http://purl.org/dc/dcmitype/StillImage" /><dc:title></dc:title></cc:Work></rdf:RDF></metadata><defs
   id="defs4581" /><sodipodi:namedview
   pagecolor="#ffffff"
   bordercolor="#666666"
   borderopacity="1"
   objecttolerance="10"
   gridtolerance="10"
   guidetolerance="10"
   inkscape:pageopacity="0"
   inkscape:pageshadow="2"
   inkscape:window-width="640"
   inkscape:window-height="480"
   id="namedview4579"
   showgrid="false"
   inkscape:zoom="3.6875"
   inkscape:cx="32"
   inkscape:cy="32"
   inkscape:window-x="596"
   inkscape:window-y="361"
   inkscape:window-maximized="0"
   inkscape:current-layer="Layer_1" />
<g
   id="g4567">
	<path
   fill="#E0E7EC"
   d="M61.742,32.053c0,16.396-13.293,29.689-29.691,29.689c-16.4,0-29.694-13.293-29.694-29.689   c0-16.4,13.293-29.694,29.694-29.694C48.449,2.359,61.742,15.652,61.742,32.053z"
   id="path4569" />
	<path
   fill="#D1D7DA"
   d="M52.386,47.249c-16.4,0-29.694-13.293-29.694-29.694c0-5.451,1.495-10.544,4.059-14.936   C12.947,5.17,2.484,17.251,2.484,31.794c0,16.397,13.291,29.69,29.692,29.69c10.947,0,20.482-5.938,25.632-14.754   C56.047,47.056,54.239,47.249,52.386,47.249z"
   id="path4571" />
	<path
   fill="#98A9B4"
   d="M32.053,0C14.379,0,0,14.379,0,32.053c0,17.674,14.379,32.053,32.053,32.053   c17.674,0,32.051-14.379,32.051-32.053C64.104,14.379,49.727,0,32.053,0z M32.053,57.863c-14.233,0-25.813-11.579-25.813-25.811   c0-14.233,11.58-25.813,25.813-25.813c14.231,0,25.811,11.58,25.811,25.813C57.863,46.284,46.284,57.863,32.053,57.863z"
   id="path4573" />
	<path
   fill="#85939C"
   d="M33.933,53.047c0,1.439-0.849,2.607-1.891,2.607l0,0c-1.047,0-1.896-1.168-1.896-2.607v-21.12   c0-1.44,0.849-2.608,1.896-2.608l0,0c1.042,0,1.891,1.168,1.891,2.608V53.047z"
   id="path4575" />
	<path
   fill="#788288"
   d="M46.336,38.923c1.166,0.842,1.612,2.215,1.001,3.061l0,0c-0.614,0.845-2.06,0.847-3.224,0l-12.375-8.966   c-1.165-0.843-1.613-2.219-0.998-3.062l0,0c0.612-0.847,2.055-0.847,3.22-0.006L46.336,38.923z"
   id="path4577" />
</g>
</svg>
